svg/monochrome/stethoscope.svg

<svg xmlns="http://www.w3.org/2000/svg" data-name="Layer 1" viewBox="0 0 24 24"><path class="uim-tertiary" d="M19 14a3 3 0 1 1 3-3A3.00328 3.00328 0 0 1 19 14zM8 15A6.00657 6.00657 0 0 1 2 9V3A1 1 0 0 1 3 2H5A1 1 0 0 1 5 4H4V9a4 4 0 0 0 8 0V4H11a1 1 0 0 1 0-2h2a1 1 0 0 1 1 1V9A6.00657 6.00657 0 0 1 8 15z"/><path class="uim-primary" d="M19,14a2.96485,2.96485,0,0,1-1-.18433V15.5a4.5,4.5,0,0,1-9,0v-.59033a5.58042,5.58042,0,0,1-2,0V15.5a6.5,6.5,0,0,0,13,0V13.81573A2.96457,2.96457,0,0,1,19,14Z"/></svg>

<svg xmlns="http://www.w3.org/2000/svg" viewBox="0 0 24 24"><path class="uim-tertiary" d="M19 14a3 3 0 1 1 3-3 3.003 3.003 0 0 1-3 3zM8 15a6.007 6.007 0 0 1-6-6V3a1 1 0 0 1 1-1h2a1 1 0 0 1 0 2H4v5a4 4 0 0 0 8 0V4h-1a1 1 0 0 1 0-2h2a1 1 0 0 1 1 1v6a6.007 6.007 0 0 1-6 6z"/><path class="uim-primary" d="M19 14a2.965 2.965 0 0 1-1-.184V15.5a4.5 4.5 0 0 1-9 0v-.59a5.58 5.58 0 0 1-2 0v.59a6.5 6.5 0 0 0 13 0v-1.684A2.965 2.965 0 0 1 19 14Z"/></svg>
